icons/op-maintenance-support-24.svg

<svg width="24" height="24" viewBox="0 0 24 24" fill="none" xmlns="http://www.w3.org/2000/svg">
<path d="M8.71343 19.2239C8.61723 19.2239 8.61723 19.0918 8.52104 19.0918C8.2004 19.323 7.68737 19.4221 7.30261 19.4221C5.85972 19.4221 4.60922 18.1672 4.60922 16.6811C4.60922 16.1527 4.73747 15.6244 5.02605 15.195L4.92986 15.096C4.92986 14.9969 4.92986 14.9969 4.83367 14.8648C4.83367 14.7657 4.83367 14.7657 4.73747 14.6667C4.32064 15.195 4 15.9216 4 16.6811C4 18.4644 5.44289 19.9505 7.17435 19.9505C7.91182 19.9505 8.52104 19.7523 9.03407 19.323C8.93788 19.323 8.84168 19.2239 8.71343 19.2239ZM19.1022 15.5253C18.9739 15.6244 19.1022 15.5253 19.1022 15.5253C19.1984 15.9216 19.2946 16.3509 19.2946 16.6811C19.2946 18.1672 18.0762 19.4221 16.6333 19.4221C16.2164 19.4221 15.7996 19.323 15.511 19.0918C15.3828 19.2239 15.1904 19.2239 15.0942 19.323C14.998 19.323 14.998 19.323 14.8697 19.4221C15.3828 19.7523 15.8958 19.9505 16.6333 19.9505C18.3647 19.9505 19.8076 18.4644 19.8076 16.6811C19.8076 16.0537 19.6152 15.5253 19.2946 14.9969C19.1984 15.195 19.1022 15.3932 19.1022 15.5253ZM4.92986 8.95356C5.02605 8.85449 5.02605 8.85449 5.02605 8.75542C4.92986 8.32611 4.83367 7.99587 4.83367 7.59959C4.83367 6.11352 6.0521 4.82559 7.49499 4.82559C7.81563 4.82559 8.2004 4.95769 8.52104 5.05676C8.61723 5.05676 8.71343 4.95769 8.71343 4.95769C8.84168 4.95769 8.93788 4.82559 9.03407 4.82559C8.52104 4.42931 8.00802 4.29721 7.49499 4.29721C5.76353 4.29721 4.32064 5.78328 4.32064 7.59959C4.32064 8.22704 4.51303 8.85449 4.83367 9.38287C4.83367 9.2838 4.83367 9.2838 4.92986 9.18473V8.95356ZM15.511 4.82559C15.6072 4.82559 15.7034 4.95769 15.7034 4.95769C16.024 4.82559 16.3126 4.72652 16.7295 4.72652C18.1723 4.72652 19.3908 6.01445 19.3908 7.46749C19.3908 7.8968 19.2946 8.32611 19.1022 8.65635C19.1984 8.85449 19.1984 8.85449 19.2946 8.95356C19.2946 9.05263 19.2946 9.05263 19.3908 9.18473C19.3908 9.2838 19.3908 9.2838 19.487 9.38287C19.8076 8.85449 20 8.22704 20 7.59959C20 5.78328 18.5892 4.29721 16.8257 4.29721C16.2164 4.29721 15.7034 4.52838 15.2866 4.72652C15.2866 4.72652 15.3828 4.82559 15.511 4.82559ZM19.7114 13.5108C19.8076 13.0815 19.8076 12.5531 19.8076 12.0248C19.8076 11.4964 19.7114 10.968 19.7114 10.5387C19.9038 11.4964 19.9038 12.5531 19.7114 13.5108ZM19.487 14.3364C19.3908 14.5676 19.3908 14.6667 19.2946 14.8648C19.3908 14.6667 19.487 14.4685 19.487 14.3364ZM14.2605 4.29721C13.5551 4.19814 12.8176 4.09907 12.1122 4.09907C11.4068 4.09907 10.6693 4.19814 9.96393 4.42931C11.4068 4 12.8176 4 14.2605 4.29721ZM19.6152 9.91125C19.7114 10.1094 19.7114 10.3406 19.7114 10.5387C19.7114 10.3406 19.6152 10.1094 19.6152 9.91125ZM10.6693 19.8514C11.0862 19.9505 11.5992 19.9505 12.1122 19.9505C12.6253 19.9505 13.1383 19.8514 13.5551 19.8514C12.6253 20.0495 11.5992 20.0495 10.6693 19.8514ZM4.60922 9.81218C4.51303 10.5387 4.41683 11.2982 4.41683 12.0248C4.41683 12.7513 4.51303 13.5108 4.73747 14.2374C4.32064 12.7513 4.32064 11.2982 4.60922 9.81218ZM14.3567 4.42931C14.5812 4.52838 14.7735 4.52838 14.8697 4.62745C14.6774 4.52838 14.485 4.42931 14.3567 4.42931ZM19.7114 13.5108C19.7114 13.709 19.6152 13.9401 19.6152 14.1383C19.6152 13.9401 19.7114 13.709 19.7114 13.5108ZM10.6693 19.8514C10.477 19.8514 10.2525 19.7523 10.0601 19.7523C10.2525 19.7523 10.477 19.8514 10.6693 19.8514ZM14.1643 19.7523C13.9719 19.8514 13.7475 19.8514 13.5551 19.8514C13.7475 19.8514 13.9719 19.7523 14.1643 19.7523ZM9.35471 4.62745C9.54709 4.52838 9.64329 4.52838 9.86774 4.42931C9.73948 4.42931 9.54709 4.52838 9.35471 4.62745ZM14.8697 19.4221C14.6774 19.5212 14.5812 19.5212 14.3567 19.6202C14.485 19.6202 14.6774 19.5212 14.8697 19.4221ZM9.86774 19.6202C9.64329 19.5212 9.54709 19.5212 9.35471 19.4221C9.54709 19.5212 9.73948 19.6202 9.86774 19.6202ZM4.73747 14.3364C4.73747 14.4685 4.83367 14.5676 4.83367 14.6667C4.83367 14.7657 4.83367 14.7657 4.92986 14.8648C4.83367 14.6667 4.73747 14.4685 4.73747 14.3364ZM8.71343 19.2239C8.84168 19.323 8.93788 19.323 9.13026 19.4221H9.22645C9.03407 19.323 8.84168 19.323 8.71343 19.2239ZM19.2946 15.096C19.1984 15.195 19.1984 15.3932 19.1022 15.5253C19.1022 15.3932 19.1984 15.195 19.2946 15.096ZM4.92986 9.18473C4.92986 9.2838 4.92986 9.2838 4.83367 9.38287C4.83367 9.48194 4.73747 9.58101 4.73747 9.71311C4.73747 9.58101 4.83367 9.38287 4.92986 9.18473ZM9.13026 4.62745L9.03407 4.72652C8.93788 4.72652 8.84168 4.82559 8.71343 4.82559C8.84168 4.82559 9.03407 4.72652 9.13026 4.62745ZM15.511 4.82559C15.3828 4.82559 15.2866 4.72652 15.1904 4.72652C15.0942 4.72652 15.0942 4.72652 14.998 4.62745C15.1904 4.72652 15.3828 4.82559 15.511 4.82559ZM19.487 9.71311C19.487 9.58101 19.3908 9.48194 19.3908 9.38287C19.3908 9.2838 19.3908 9.2838 19.2946 9.18473C19.3908 9.38287 19.487 9.58101 19.487 9.71311ZM19.487 14.3364V14.2374C19.6152 14.0392 19.6152 13.8081 19.6152 13.6099C19.8076 12.6522 19.8076 11.5955 19.6152 10.5387C19.6152 10.3406 19.487 10.1094 19.487 9.91125V9.81218C19.3908 9.58101 19.3908 9.48194 19.2946 9.2838C19.2946 9.18473 19.2946 9.18473 19.1984 9.05263C18.7816 8.12797 18.2685 7.26935 17.5631 6.41073C17.0501 5.88235 16.4088 5.35397 15.7034 5.05676C15.6072 5.05676 15.511 4.95769 15.511 4.95769C15.3828 4.82559 15.1904 4.72652 15.0942 4.62745C14.998 4.62745 14.998 4.62745 14.8697 4.52838C14.6774 4.42931 14.485 4.42931 14.3567 4.29721H14.2605C12.8176 3.90093 11.4068 3.90093 10.0601 4.29721H9.96393C9.73948 4.42931 9.54709 4.52838 9.35471 4.62745H9.13026C9.03407 4.72652 8.84168 4.82559 8.71343 4.82559C8.61723 4.82559 8.52104 4.95769 8.52104 4.95769C7.81563 5.35397 7.17435 5.78328 6.66132 6.41073C5.85972 7.17028 5.34669 7.99587 4.92986 8.95356V9.18473C4.83367 9.38287 4.73747 9.58101 4.73747 9.71311V9.81218C4.32064 11.2982 4.32064 12.7513 4.73747 14.1383V14.2374C4.83367 14.4685 4.83367 14.6667 4.92986 14.7657C4.92986 14.8648 4.92986 14.8648 5.02605 14.9969C5.44289 15.9216 5.95591 16.7802 6.66132 17.6388C7.30261 18.2663 7.91182 18.6956 8.61723 19.0918C8.71343 19.0918 8.71343 19.2239 8.84168 19.2239C8.84168 19.323 9.03407 19.323 9.13026 19.4221C9.22645 19.4221 9.22645 19.4221 9.35471 19.5212C9.54709 19.6202 9.64329 19.6202 9.86774 19.7523H9.96393C10.1563 19.8514 10.3808 19.8514 10.5731 19.8514C11.503 20.0495 12.5291 20.0495 13.5551 19.8514C13.7475 19.8514 13.9719 19.7523 14.1643 19.7523H14.2605C14.485 19.6202 14.5812 19.6202 14.7735 19.5212C14.8697 19.5212 14.8697 19.5212 14.998 19.4221C15.8958 18.9928 16.7295 18.4644 17.5631 17.7379C18.1723 17.1104 18.5892 16.4499 18.9739 15.7234V15.6244C19.1022 15.5253 19.1022 15.2941 19.1984 15.195C19.1984 15.096 19.1984 15.096 19.2946 14.9969C19.3908 14.6667 19.487 14.4685 19.487 14.3364ZM16.9218 16.9783C16.3126 17.6388 15.511 18.1672 14.6774 18.5635L13.9719 16.7802C15.1904 16.2518 16.1202 15.2941 16.6333 14.0392L18.3647 14.7657C18.0762 15.5253 17.5631 16.2518 16.9218 16.9783ZM16.6333 10.1094C16.4088 9.48194 16.024 8.95356 15.6072 8.42518C15.0942 7.8968 14.5812 7.59959 13.9719 7.36842L14.6774 5.58514C15.511 5.88235 16.3126 6.41073 16.9218 7.17028C17.5631 7.79773 18.0762 8.65635 18.4609 9.48194L16.6333 10.1094ZM9.54709 5.58514L10.2525 7.36842C9.13026 7.8968 8.10421 8.95356 7.59118 10.1094L5.85972 9.38287C6.46894 7.69866 7.91182 6.21259 9.54709 5.58514ZM7.59118 13.9401C7.81563 14.5676 8.2004 15.096 8.61723 15.6244C9.13026 16.1527 9.64329 16.4499 10.2525 16.6811L9.54709 18.4644C8.71343 18.1672 7.91182 17.6388 7.30261 16.8793C6.66132 16.2518 6.1483 15.3932 5.76353 14.5676L7.59118 13.9401ZM9.35471 14.8648C7.81563 13.2797 7.81563 10.7699 9.35471 9.2838C10.8938 7.69866 13.3307 7.69866 14.7735 9.2838C16.3126 10.8689 16.3126 13.4118 14.7735 14.8648C13.3307 16.3509 10.8938 16.3509 9.35471 14.8648Z" fill="black"/>
</svg>

<svg xmlns="http://www.w3.org/2000/svg" width="24" height="24" viewBox="0 0 24 24"><path d="M8.713 19.224c-.096 0-.096-.132-.192-.132-.321.231-.834.33-1.218.33-1.443 0-2.694-1.255-2.694-2.741 0-.528.128-1.057.417-1.486l-.096-.099c0-.099 0-.099-.096-.231 0-.099 0-.099-.097-.198-.416.528-.737 1.255-.737 2.014 0 1.783 1.443 3.27 3.174 3.27.738 0 1.347-.199 1.86-.628-.096 0-.192-.099-.321-.099Zm10.389-3.699c-.128.099 0 0 0 0 .096.397.193.826.193 1.156 0 1.486-1.219 2.741-2.662 2.741-.417 0-.833-.099-1.122-.33-.128.132-.321.132-.417.231-.096 0-.096 0-.224.099.513.33 1.026.529 1.763.529 1.732 0 3.175-1.487 3.175-3.27 0-.627-.193-1.156-.513-1.684-.097.198-.193.396-.193.528ZM4.93 8.954c.096-.1.096-.1.096-.199-.096-.429-.192-.759-.192-1.155 0-1.486 1.218-2.774 2.661-2.774.321 0 .705.132 1.026.231.096 0 .192-.099.192-.099.129 0 .225-.132.321-.132a2.414 2.414 0 0 0-1.539-.529c-1.731 0-3.174 1.486-3.174 3.303 0 .627.192 1.254.513 1.783 0-.099 0-.099.096-.198v-.231Zm10.581-4.128c.096 0 .192.132.192.132.321-.132.61-.231 1.027-.231 1.442 0 2.661 1.287 2.661 2.74 0 .43-.096.859-.289 1.189.096.198.096.198.193.298 0 .099 0 .099.096.231 0 .099 0 .099.096.198A3.482 3.482 0 0 0 20 7.6c0-1.817-1.411-3.303-3.174-3.303-.61 0-1.123.231-1.539.43 0 0 .096.099.224.099Zm4.2 8.685c.097-.429.097-.958.097-1.486 0-.529-.097-1.057-.097-1.486a7.7 7.7 0 0 1 0 2.972Zm-.224.825c-.096.232-.096.331-.192.529.096-.198.192-.396.192-.529ZM14.261 4.297c-.706-.099-1.443-.198-2.149-.198-.705 0-1.443.099-2.148.33C11.407 4 12.818 4 14.261 4.297Zm5.354 5.614c.096.198.096.43.096.628 0-.198-.096-.43-.096-.628Zm-8.946 9.94c.417.1.93.1 1.443.1s1.026-.1 1.443-.1a7.085 7.085 0 0 1-2.886 0ZM4.609 9.812c-.096.727-.192 1.486-.192 2.213 0 .726.096 1.486.32 2.212-.416-1.486-.416-2.939-.128-4.425Zm9.748-5.383c.224.099.417.099.513.198-.193-.099-.385-.198-.513-.198Zm-.193 15.323c-.192.099-.416.099-.609.099.193 0 .417-.099.609-.099ZM9.355 4.627c.192-.099.288-.099.513-.198-.129 0-.321.099-.513.198Zm5.515 14.795c-.193.099-.289.099-.513.198.128 0 .32-.099.513-.198Zm-5.002.198c-.225-.099-.321-.099-.513-.198.192.099.384.198.513.198Zm-5.131-5.284c0 .133.097.232.097.331s0 .099.096.198c-.096-.198-.193-.396-.193-.529Zm3.976 4.888c.129.099.225.099.417.198h.096c-.192-.099-.384-.099-.513-.198Zm10.582-4.128c-.097.099-.097.297-.193.429 0-.132.096-.33.193-.429ZM4.93 9.185c0 .099 0 .099-.096.198 0 .099-.097.198-.097.33 0-.132.097-.33.193-.528Zm4.2-4.558-.096.1c-.096 0-.192.099-.321.099.129 0 .321-.099.417-.199Zm6.381.199c-.128 0-.224-.099-.321-.099-.096 0-.096 0-.192-.1.192.1.385.199.513.199Zm3.976 4.887c0-.132-.096-.231-.096-.33s0-.099-.096-.198c.096.198.192.396.192.528Zm0 4.623v-.099c.128-.198.128-.429.128-.627.193-.958.193-2.015 0-3.071 0-.198-.128-.43-.128-.628v-.099c-.096-.231-.096-.33-.192-.528 0-.099 0-.099-.097-.231a11.498 11.498 0 0 0-1.635-2.642c-.513-.529-1.154-1.057-1.86-1.354-.096 0-.192-.099-.192-.099-.128-.132-.321-.231-.417-.331-.096 0-.096 0-.224-.099-.193-.099-.385-.099-.513-.231h-.096c-1.443-.396-2.854-.396-4.201 0h-.096c-.225.132-.417.231-.609.33H9.13c-.096.1-.288.199-.417.199-.096 0-.192.132-.192.132-.705.396-1.347.825-1.86 1.453-.801.759-1.314 1.585-1.731 2.543v.231c-.096.198-.193.396-.193.528v.099c-.416 1.486-.416 2.939 0 4.326v.099c.097.232.097.43.193.529 0 .099 0 .099.096.231.417.925.93 1.783 1.635 2.642a8.91 8.91 0 0 0 1.956 1.453c.096 0 .096.132.225.132 0 .099.192.099.288.198.096 0 .096 0 .225.099.192.099.288.099.513.231h.096c.192.099.417.099.609.099.93.198 1.956.198 2.982 0 .193 0 .417-.099.609-.099h.097c.224-.132.32-.132.513-.231.096 0 .096 0 .224-.099a11.098 11.098 0 0 0 2.565-1.684c.609-.628 1.026-1.288 1.411-2.015v-.099c.128-.099.128-.33.224-.429 0-.099 0-.099.097-.198.096-.33.192-.528.192-.661Zm-2.565 2.642c-.609.661-1.411 1.189-2.245 1.586l-.705-1.784c1.218-.528 2.148-1.486 2.661-2.741l1.732.727c-.289.759-.802 1.486-1.443 2.212Zm-.289-6.869c-.224-.627-.609-1.155-1.026-1.684-.513-.528-1.026-.825-1.635-1.057l.705-1.783a5.056 5.056 0 0 1 2.245 1.585c.641.628 1.154 1.486 1.539 2.312l-1.828.627ZM9.547 5.585l.705 1.783c-1.122.529-2.148 1.586-2.661 2.741L5.86 9.383c.609-1.684 2.052-3.17 3.687-3.798ZM7.591 13.94c.225.628.609 1.156 1.026 1.684.513.529 1.026.826 1.635 1.057l-.705 1.783a5.046 5.046 0 0 1-2.244-1.585c-.642-.627-1.155-1.486-1.539-2.311l1.827-.628Zm1.764.925c-1.539-1.585-1.539-4.095 0-5.581 1.539-1.585 3.976-1.585 5.419 0 1.539 1.585 1.539 4.128 0 5.581-1.443 1.486-3.88 1.486-5.419 0Z"/></svg>
